assets/icons/call.svg

<svg width="25" height="25" viewBox="0 0 25 25" fill="none" xmlns="http://www.w3.org/2000/svg">
<g id="call">
<path id="iconDefault" fill-rule="evenodd" clip-rule="evenodd" d="M21.3459 2.75794C20.533 1.94595 19.2433 1.86825 18.5135 2.59723L16.1148 4.99355C15.7339 5.44422 15.6204 5.91235 15.6691 6.38183C15.7202 6.87379 15.9538 7.39473 16.3145 7.89824L17.1191 9.02354C17.2509 9.2078 17.2423 9.45762 17.0982 9.6324C14.8256 12.3892 12.2289 14.9832 9.46934 17.2534C9.27064 17.4169 8.98033 17.4029 8.79831 17.2211L7.83311 16.2568C7.82834 16.2521 7.82368 16.2472 7.81911 16.2423C7.3505 15.7347 6.83202 15.523 6.35688 15.5141C5.87846 15.5052 5.3965 15.7008 5.0008 16.0961L2.602 18.4925C1.83541 19.399 1.95551 20.5423 2.74867 21.3346C2.75652 21.3425 2.76411 21.3506 2.77142 21.3589C3.25349 21.9093 4.13335 22.4232 5.10486 22.6989C6.07239 22.9735 7.01379 22.9796 7.65884 22.6676C13.7001 18.8513 18.9439 13.6085 22.5971 7.57885C22.6009 7.57261 22.6048 7.56646 22.6089 7.5604C22.9706 7.01838 23.0014 6.1607 22.7259 5.19844C22.4552 4.25308 21.9222 3.33368 21.3459 2.75794ZM17.8068 1.88977C19.0075 0.690332 20.935 0.934034 22.0526 2.05047C22.7632 2.76033 23.3756 3.83465 23.6872 4.92318C23.993 5.99102 24.0438 7.20258 23.447 8.10587C19.7052 14.2784 14.3424 19.6332 8.17015 23.5274C8.15611 23.5363 8.14163 23.5444 8.12677 23.5519C7.16363 24.0329 5.92405 23.9709 4.83184 23.6609C3.73925 23.3508 2.67533 22.7598 2.03019 22.0303C0.907378 20.898 0.708269 19.1638 1.85497 17.8273C1.86331 17.8176 1.87201 17.8082 1.88106 17.7992L4.29406 15.3887C4.86355 14.8198 5.60086 14.4998 6.37554 14.5143C7.1506 14.5287 7.91621 14.8769 8.54677 15.5563L9.18285 16.1917C11.6646 14.1145 14.0058 11.7727 16.0814 9.29154L15.5016 8.48065C15.0787 7.89041 14.7493 7.20609 14.6745 6.485C14.5979 5.74628 14.7929 4.99839 15.3677 4.32843C15.3761 4.31872 15.3848 4.30933 15.3938 4.30028L17.8068 1.88977Z" fill="#18303F"/>
</g>
</svg>

<svg width="25" height="25" viewBox="0 0 25 25" fill="none"><g id="call"><path id="iconDefault" fill-rule="evenodd" clip-rule="evenodd" d="M21.346 2.758c-.813-.812-2.103-.89-2.832-.16l-2.4 2.396c-.38.45-.494.918-.445 1.388.051.492.285 1.013.645 1.516l.805 1.126a.5.5 0 0 1-.02.608 56.432 56.432 0 0 1-7.63 7.621.5.5 0 0 1-.67-.032l-.966-.964a.479.479 0 0 1-.014-.015c-.468-.507-.987-.719-1.462-.728-.479-.009-.96.187-1.356.582l-2.399 2.396c-.767.907-.646 2.05.147 2.843a.553.553 0 0 1 .022.024c.482.55 1.362 1.064 2.334 1.34.967.274 1.909.28 2.554-.031 6.041-3.817 11.285-9.06 14.938-15.09a.457.457 0 0 1 .012-.018c.362-.542.392-1.4.117-2.362-.27-.945-.804-1.864-1.38-2.44Zm-3.54-.868c1.201-1.2 3.129-.956 4.247.16.71.71 1.323 1.785 1.634 2.873.306 1.068.357 2.28-.24 3.183-3.742 6.172-9.105 11.527-15.277 15.421a.51.51 0 0 1-.043.025c-.963.48-2.203.419-3.295.109-1.093-.31-2.157-.901-2.802-1.63-1.123-1.133-1.322-2.867-.175-4.204a.492.492 0 0 1 .026-.028l2.413-2.41c.57-.57 1.307-.89 2.082-.875.775.015 1.54.363 2.17 1.042l.637.636a55.506 55.506 0 0 0 6.898-6.9l-.58-.811c-.422-.59-.752-1.275-.826-1.996-.077-.739.118-1.487.693-2.157a.553.553 0 0 1 .026-.028l2.413-2.41Z" fill="#18303F"/></g></svg>
